FINK
CUT[IST MIR ALLES EINS]
REG[Europa, Mitteleuropa, Deutschland]
KEY[F0043  16  G 3/4]
MEL[5_.4  3_5_5__4_.2  1_3_3__
    2_1_  -7_4_4__3_2_  6__5_0_
    5_.4  3_5_5__4_.2  1_3_3__
    2_1_  -7_6_6__4_2_  1__0__
    3_.1  -7_4_4__2_-7_  1_6_5__
    3_.1  -7_4_4__2_-7_  1_6_5__
    5_.4  3_5_5__4_.2  1_3_3__
    2_1_  -7_4_4__3_2_  6__5_0_
    5_.4  3_5_5__4_.2  1_3_3__
    2_1_  -7_6_6__4_2_  1__0__ //] >>
FCT[Scherz - Lied]
